X: 135013
Q: "Irish Reel."
M: 2/4
L: 1/16
K: Ador
|:\
eaag eaag | efgf efgf |
eaag eaag | egfa gedB |\
e!1!aab c'ab!2!g | egfa gfge |\
dega bgaf | egfa gedB |]


